app/dist/common/images/northern-trust.svg

<svg height="18" width="18" xmlns="http://www.w3.org/2000/svg"><path d="m0 0h18v18h-18z" fill="#115840"/><g fill="#fff"><path d="m7.667 7.756 2.689 3.652h.8l-3.546-4.816h-.942v.74h.332v3.335h-.333v.74h1.333v-.74h-.333zm4.333-1.164h-2v.74h.667v2.224h.666v-2.223h.667z"/><path d="m9.927 5h.017c.103-.173.155-.375.155-.583 0-.589-.481-1.074-1.065-1.074s-1.064.485-1.064 1.074c0 .208.051.41.154.583h.018-2.142v.676h2.667v1.334l.666.768v-2.102h2.667v-.676zm-.893 0a.576.576 0 0 1 -.584-.583c0-.33.258-.589.584-.589s.584.26.584.59a.598.598 0 0 1 -.584.582zm3.368 5.239c-.187 1.659-1.378 2.867-3.069 2.998v-1.981l-.666-.716v2.697c-1.669-.13-2.891-1.47-3.07-3.098l-.597-.475c0 1.516.782 2.966 2.146 3.673l1.854 1.663 1.854-1.663c1.36-.722 2.146-2.17 2.146-3.69zm-3.368 4.103-.635-.59c.412.07.824.07 1.236 0l-.6.59z"/></g></svg>

<!-- by TradingView --><svg width="18" height="18" xmlns="http://www.w3.org/2000/svg"><path fill="#115840" d="M0 0h18v18H0z"/><path d="M7.667 7.756l2.689 3.652h.8L7.61 6.592h-.942v.74H7v3.335h-.333v.74H8v-.74h-.333V7.756zM12 6.592h-2v.74h.667v2.224h.666V7.333H12v-.741z" fill="#fff"/><path d="M9.927 5h.017c.103-.173.155-.375.155-.583 0-.589-.481-1.074-1.065-1.074S7.97 3.828 7.97 4.417c0 .208.051.41.154.583h.018H6v.676h2.667V7.01l.666.768V5.676H12V5H9.927zm-.893 0a.576.576 0 01-.584-.583c0-.33.258-.589.584-.589.326 0 .584.26.584.59A.598.598 0 019.034 5zM12.402 10.239c-.187 1.659-1.378 2.867-3.069 2.998v-1.981l-.666-.716v2.697c-1.669-.13-2.891-1.47-3.07-3.098L5 9.664c0 1.516.782 2.966 2.146 3.673L9 15l1.854-1.663c1.36-.722 2.146-2.17 2.146-3.69l-.598.592zm-3.368 4.103l-.635-.59c.412.07.824.07 1.236 0l-.6.59z" fill="#fff"/></svg>
